packages/kaspersky-hexa-ui-icons/src/iconsSVGs/24/Thread.svg

<svg xmlns="http://www.w3.org/2000/svg" width="24" height="24" fill="none" viewBox="0 0 24 24"><path fill="#000" fill-rule="evenodd" d="M11 8H7v3l3-.0002q.0849.0001.166.0137C10.574 9.8413 11.6887 9 13 9h6c1.6569 0 3 1.3431 3 3s-1.3431 3-3 3h-6c-1.3114 0-2.4263-.8414-2.8342-2.0139a1 1 0 0 1-.1657.0137l-3 .0002L7 18h3.1707c.4118-1.1652 1.5231-2 2.8293-2h6c1.6569 0 3 1.3431 3 3s-1.3431 3-3 3h-6c-1.3062 0-2.4175-.8348-2.8293-2H6c-.5523 0-1-.4477-1-1V8C3.3432 8 2 6.6569 2 5s1.3432-3 3-3h6c1.6569 0 3 1.3432 3 3s-1.3431 3-3 3m0-4H5c-.5523 0-1 .4477-1 1s.4477 1 1 1h6c.5523 0 1-.4477 1-1s-.4477-1-1-1m2 16c-.5523 0-1-.4477-1-1s.4477-1 1-1h6c.5523 0 1 .4477 1 1s-.4477 1-1 1zm6-9h-6c-.5523 0-1 .4477-1 1s.4477 1 1 1h6c.5523 0 1-.4477 1-1s-.4477-1-1-1"/></svg>

<svg width="24" height="24" viewBox="0 0 24 24" fill="none" xmlns="http://www.w3.org/2000/svg">
<path fill-rule="evenodd" clip-rule="evenodd" d="M11 8H7V11L9.99994 10.9998C10.0565 10.9998 10.112 11.0045 10.166 11.0135C10.574 9.84127 11.6887 9 13 9H19C20.6569 9 22 10.3431 22 12C22 13.6569 20.6569 15 19 15H13C11.6886 15 10.5737 14.1586 10.1658 12.9861C10.1119 12.9951 10.0565 12.9998 10.0001 12.9998L7.00005 13C7.00003 13 7.00006 13 7.00005 13L7 18H10.1707C10.5825 16.8348 11.6938 16 13 16H19C20.6569 16 22 17.3431 22 19C22 20.6569 20.6569 22 19 22H13C11.6938 22 10.5825 21.1652 10.1707 20H6C5.44772 20 5 19.5523 5 19V8C3.34315 8 2 6.65685 2 5C2 3.34315 3.34315 2 5 2H11C12.6569 2 14 3.34315 14 5C14 6.65685 12.6569 8 11 8ZM11 4H5C4.44772 4 4 4.44772 4 5C4 5.55228 4.44772 6 5 6H11C11.5523 6 12 5.55228 12 5C12 4.44772 11.5523 4 11 4ZM13 20C12.4477 20 12 19.5523 12 19C12 18.4477 12.4477 18 13 18H19C19.5523 18 20 18.4477 20 19C20 19.5523 19.5523 20 19 20H13ZM19 11H13C12.4477 11 12 11.4477 12 12C12 12.5523 12.4477 13 13 13H19C19.5523 13 20 12.5523 20 12C20 11.4477 19.5523 11 19 11Z" fill="black"/>
</svg>
